X:68
T:London Morgeanian(?),The. WI.068
T:Morgianna In London?aka. WI.068
M:6/8
L:1/8
Q:3/8=120
S:Wm Irwin, Folio MS, c1850. AGG’s Transcription
R:.Jig
O:England
A:Lake District
Z:vmp.Chris Partington.2005
K:A
d|c2A E2c|dBG Ace|fdB ecA|GAB Bcd|!
c2A E2c|dBG Ace|fdB ecA|EFG A2:|!
d|cee efg|a3 agf|efe edc|cBB Bcd|!
cee efg|a3 aga|bge af^d|efe dcB|!
A2E ecA|G2F dBG|A2E ecA|GAB EFG|!
A2E ecA|G2F dBG|Ace Adf|” DC”eag fed|]

